Newaita-dark/apps/16/com.github.arshubham.cipher.svg

<svg height="16pt" viewBox="0 0 16 16" width="16pt" xmlns="http://www.w3.org/2000/svg" xmlns:xlink="http://www.w3.org/1999/xlink"><linearGradient id="a"><stop offset="0" stop-opacity=".313725"/><stop offset=".222222" stop-opacity=".27451"/><stop offset="1" stop-opacity="0"/></linearGradient><radialGradient id="b" cx="450.90894" cy="189.57936" gradientTransform="matrix(.00000009 -.0390662 -.0703192 -.00000005 24.411521 31.797666)" gradientUnits="userSpaceOnUse" r="21.166656" xlink:href="#a"/><radialGradient id="c" cx="450.90894" cy="189.57936" gradientTransform="matrix(-.00000009 .0390662 .0703192 .00000005 -8.535004 -3.76374)" gradientUnits="userSpaceOnUse" r="21.166656" xlink:href="#a"/><radialGradient id="d" cx="450.90894" cy="189.57936" gradientTransform="matrix(-.00000009 -.0390662 .0703192 -.00000005 -8.535004 31.797666)" gradientUnits="userSpaceOnUse" r="21.166656" xlink:href="#a"/><radialGradient id="e" cx="450.90894" cy="189.57936" gradientTransform="matrix(.00000009 .0390662 -.0703192 .00000005 24.41152 -3.76374)" gradientUnits="userSpaceOnUse" r="21.166656" xlink:href="#a"/><linearGradient id="f" gradientTransform="matrix(.1336 0 0 .0249743 -26.172998 8.318354)" gradientUnits="userSpaceOnUse" x1="255.32297" x2="255.32304" y1="228.17859" y2="254.66666"><stop offset="0" stop-opacity=".27451"/><stop offset="1" stop-opacity="0"/></linearGradient><linearGradient id="g" gradientUnits="userSpaceOnUse" x1="7.938262" x2="7.938262" y1="14.0169675" y2="7.4017491875"><stop offset="0" stop-color="#26a69a"/><stop offset="1" stop-color="#4db6ac"/></linearGradient><linearGradient id="h" gradientUnits="userSpaceOnUse" x1="7.9382592" x2="7.9382592" y1="14.01696629816" y2="1.44805523664"><stop offset="0" stop-color="#bdbdbd"/><stop offset="1" stop-color="#eee"/></linearGradient><linearGradient id="i"><stop offset="0" stop-color="#26a69a"/><stop offset=".510345" stop-color="#4db6ac"/><stop offset="1" stop-color="#26a69a"/></linearGradient><linearGradient id="j" gradientUnits="userSpaceOnUse" x1="125.5" x2="181.41667" xlink:href="#i" y1="127.66667" y2="127.66667"/><linearGradient id="k" gradientUnits="userSpaceOnUse" x1="326.58334" x2="382.49994" xlink:href="#i" y1="127.66667" y2="127.66667"/><path d="m11.246094 14.015625h1.324218v-.660156h-1.324218zm0 0" fill="url(#b)"/><path d="m4.628906 14.015625h-1.320312v.664063h1.320312zm0 0" fill="url(#c)"/><path d="m4.628906 14.015625h-1.320312v-.660156h1.320312zm0 0" fill="url(#d)"/><path d="m11.246094 14.015625h1.324218v.664063h-1.324218zm0 0" fill="url(#e)"/><path d="m4.628906 14.019531h6.617188v.660157h-6.617188zm0 0" fill="url(#f)"/><path d="m3.96875 7.402344h7.9375c.367188 0 .664062.296875.664062.660156v5.292969c0 .367187-.296874.660156-.664062.660156h-7.9375c-.363281 0-.660156-.292969-.660156-.660156v-5.292969c0-.363281.296875-.660156.660156-.660156zm0 0" fill="url(#g)"/><path d="m7.9375 1.449219c-2.015625 0-3.636719 1.621093-3.636719 3.636719v2.316406h.992188v-2.316406c0-1.464844 1.179687-2.644532 2.644531-2.644532s2.648438 1.179688 2.648438 2.644532v2.316406h.992187v-2.316406c0-2.015626-1.625-3.636719-3.640625-3.636719zm0 0" fill="url(#h)"/><path d="m7.9375 1.449219c-2.015625 0-3.636719 1.621093-3.636719 3.636719v2.316406h.992188v-2.316406c0-1.464844 1.179687-2.644532 2.644531-2.644532s2.648438 1.179688 2.648438 2.644532v2.316406h.992187v-2.316406c0-2.015626-1.625-3.636719-3.640625-3.636719zm0 0" fill="#cfcfcf"/><path d="m7.9375 1.449219c-2.015625 0-3.636719 1.621093-3.636719 3.636719v.164062c0-2.015625 1.621094-3.636719 3.636719-3.636719s3.640625 1.621094 3.640625 3.636719v-.164062c0-2.015626-1.625-3.636719-3.640625-3.636719zm0 0" fill="#fff" fill-opacity=".784314"/><path d="m7.9375 2.273438c-1.464844 0-2.644531 1.183593-2.644531 2.648437v.164063c0-1.464844 1.179687-2.644532 2.644531-2.644532s2.648438 1.179688 2.648438 2.644532v-.164063c0-1.464844-1.183594-2.648437-2.648438-2.648437zm-3.636719 4.964843v.164063h.992188v-.164063zm6.285157 0v.164063h.992187v-.164063zm0 0" fill-opacity=".235294"/><g stroke="#212121" stroke-linecap="round" stroke-linejoin="round"><path d="m959.908345 175.258856c-243.756253 0-439.800526 196.044274-439.800526 439.800527v280.130732h119.988543v-280.130732c0-177.14844 142.663544-319.811983 319.811983-319.811983 177.14844 0 320.284379 142.663543 320.284379 319.811983v280.130732h119.988544v-280.130732c0-243.756253-196.51667-439.800527-440.272923-439.800527zm0 0" fill="none" stroke-width="11.338583" transform="scale(.00826902)"/><path d="m126.987873 21.852382h52.869951v211.604792h-52.869951zm0 0" fill="none" stroke-width="3" transform="matrix(.031253 0 0 .031253 0 6.719392)"/><path d="m126.987873 21.852382h52.869951v211.604792h-52.869951zm0 0" fill="url(#j)" stroke-width="3" transform="matrix(.031253 0 0 .031253 0 6.719392)"/><path d="m328.093669 21.852382h52.869951v211.604792h-52.869951zm0 0" fill="none" stroke-width="3" transform="matrix(.031253 0 0 .031253 0 6.719392)"/><path d="m328.093669 21.852382h52.869951v211.604792h-52.869951zm0 0" fill="url(#k)" stroke-width="3" transform="matrix(.031253 0 0 .031253 0 6.719392)"/></g><path d="m3.96875 14.015625c-.367188 0-.660156-.292969-.660156-.660156v-.332031c0 .367187.292968.664062.660156.664062h7.9375c.367188 0 .664062-.296875.664062-.664062v.332031c0 .367187-.296874.660156-.664062.660156zm0 0" fill-opacity=".235294"/><path d="m3.96875 7.402344c-.367188 0-.660156.292968-.660156.660156v.332031c0-.367187.292968-.660156.660156-.660156h7.9375c.367188 0 .664062.292969.664062.660156v-.332031c0-.367188-.296874-.660156-.664062-.660156zm0 0" fill="#fff" fill-opacity=".392157"/><path d="m3.96875 7.355469c-.390625 0-.707031.316406-.707031.707031v5.292969c0 .390625.316406.707031.707031.707031h7.9375c.394531 0 .710938-.316406.710938-.707031v-5.292969c0-.390625-.316407-.707031-.710938-.707031zm0 .09375h7.9375c.34375 0 .617188.273437.617188.613281v5.292969c0 .339843-.273438.613281-.617188.613281h-7.9375c-.339844 0-.613281-.273438-.613281-.613281v-5.292969c0-.339844.273437-.613281.613281-.613281zm0 0" fill="#212121"/></svg>

<?xml version="1.0" encoding="UTF-8"?>
<svg xmlns="http://www.w3.org/2000/svg" xmlns:xlink="http://www.w3.org/1999/xlink" width="16pt" height="16pt" viewBox="0 0 16 16" version="1.1">
<defs>
<radialGradient id="radial0" gradientUnits="userSpaceOnUse" cx="450.90894" cy="189.57936" fx="450.90894" fy="189.57936" r="21.166656" gradientTransform="matrix(0.0000000870852,-0.0390662,-0.0703192,-0.0000000507693,24.411521,31.797666)">
<stop offset="0" style="stop-color:rgb(0%,0%,0%);stop-opacity:0.313725;"/>
<stop offset="0.222222" style="stop-color:rgb(0%,0%,0%);stop-opacity:0.27451;"/>
<stop offset="1" style="stop-color:rgb(0%,0%,0%);stop-opacity:0;"/>
</radialGradient>
<radialGradient id="radial1" gradientUnits="userSpaceOnUse" cx="450.90894" cy="189.57936" fx="450.90894" fy="189.57936" r="21.166656" gradientTransform="matrix(-0.0000000870852,0.0390662,0.0703192,0.0000000507693,-8.535004,-3.76374)">
<stop offset="0" style="stop-color:rgb(0%,0%,0%);stop-opacity:0.313725;"/>
<stop offset="0.222222" style="stop-color:rgb(0%,0%,0%);stop-opacity:0.27451;"/>
<stop offset="1" style="stop-color:rgb(0%,0%,0%);stop-opacity:0;"/>
</radialGradient>
<radialGradient id="radial2" gradientUnits="userSpaceOnUse" cx="450.90894" cy="189.57936" fx="450.90894" fy="189.57936" r="21.166656" gradientTransform="matrix(-0.0000000870852,-0.0390662,0.0703192,-0.0000000507693,-8.535004,31.797666)">
<stop offset="0" style="stop-color:rgb(0%,0%,0%);stop-opacity:0.313725;"/>
<stop offset="0.222222" style="stop-color:rgb(0%,0%,0%);stop-opacity:0.27451;"/>
<stop offset="1" style="stop-color:rgb(0%,0%,0%);stop-opacity:0;"/>
</radialGradient>
<radialGradient id="radial3" gradientUnits="userSpaceOnUse" cx="450.90894" cy="189.57936" fx="450.90894" fy="189.57936" r="21.166656" gradientTransform="matrix(0.0000000870852,0.0390662,-0.0703192,0.0000000507693,24.41152,-3.76374)">
<stop offset="0" style="stop-color:rgb(0%,0%,0%);stop-opacity:0.313725;"/>
<stop offset="0.222222" style="stop-color:rgb(0%,0%,0%);stop-opacity:0.27451;"/>
<stop offset="1" style="stop-color:rgb(0%,0%,0%);stop-opacity:0;"/>
</radialGradient>
<linearGradient id="linear0" gradientUnits="userSpaceOnUse" x1="255.32297" y1="228.17859" x2="255.32304" y2="254.66666" gradientTransform="matrix(0.1336,0,0,0.0249743,-26.172998,8.318354)">
<stop offset="0" style="stop-color:rgb(0%,0%,0%);stop-opacity:0.27451;"/>
<stop offset="1" style="stop-color:rgb(0%,0%,0%);stop-opacity:0;"/>
</linearGradient>
<linearGradient id="linear1" gradientUnits="userSpaceOnUse" x1="254" y1="233.5" x2="254" y2="21.833334" gradientTransform="matrix(0.031253,0,0,0.031253,0,6.719392)">
<stop offset="0" style="stop-color:rgb(14.901961%,65.098039%,60.392157%);stop-opacity:1;"/>
<stop offset="1" style="stop-color:rgb(30.196078%,71.372549%,67.45098%);stop-opacity:1;"/>
</linearGradient>
<linearGradient id="linear2" gradientUnits="userSpaceOnUse" x1="960" y1="1695.1182" x2="960" y2="175.11812" gradientTransform="matrix(0.00826902,0,0,0.00826902,0,0)">
<stop offset="0" style="stop-color:rgb(74.117647%,74.117647%,74.117647%);stop-opacity:1;"/>
<stop offset="1" style="stop-color:rgb(93.333333%,93.333333%,93.333333%);stop-opacity:1;"/>
</linearGradient>
<linearGradient id="linear3" gradientUnits="userSpaceOnUse" x1="125.5" y1="127.66667" x2="181.41667" y2="127.66667" >
<stop offset="0" style="stop-color:rgb(14.901961%,65.098039%,60.392157%);stop-opacity:1;"/>
<stop offset="0.510345" style="stop-color:rgb(30.196078%,71.372549%,67.45098%);stop-opacity:1;"/>
<stop offset="1" style="stop-color:rgb(14.901961%,65.098039%,60.392157%);stop-opacity:1;"/>
</linearGradient>
<linearGradient id="linear4" gradientUnits="userSpaceOnUse" x1="326.58334" y1="127.66667" x2="382.49994" y2="127.66667" >
<stop offset="0" style="stop-color:rgb(14.901961%,65.098039%,60.392157%);stop-opacity:1;"/>
<stop offset="0.510345" style="stop-color:rgb(30.196078%,71.372549%,67.45098%);stop-opacity:1;"/>
<stop offset="1" style="stop-color:rgb(14.901961%,65.098039%,60.392157%);stop-opacity:1;"/>
</linearGradient>
</defs>
<g id="surface1">
<path style=" stroke:none;fill-rule:nonzero;fill:url(#radial0);" d="M 11.246094 14.015625 L 12.570312 14.015625 L 12.570312 13.355469 L 11.246094 13.355469 Z M 11.246094 14.015625 "/>
<path style=" stroke:none;fill-rule:nonzero;fill:url(#radial1);" d="M 4.628906 14.015625 L 3.308594 14.015625 L 3.308594 14.679688 L 4.628906 14.679688 Z M 4.628906 14.015625 "/>
<path style=" stroke:none;fill-rule:nonzero;fill:url(#radial2);" d="M 4.628906 14.015625 L 3.308594 14.015625 L 3.308594 13.355469 L 4.628906 13.355469 Z M 4.628906 14.015625 "/>
<path style=" stroke:none;fill-rule:nonzero;fill:url(#radial3);" d="M 11.246094 14.015625 L 12.570312 14.015625 L 12.570312 14.679688 L 11.246094 14.679688 Z M 11.246094 14.015625 "/>
<path style=" stroke:none;fill-rule:nonzero;fill:url(#linear0);" d="M 4.628906 14.019531 L 11.246094 14.019531 L 11.246094 14.679688 L 4.628906 14.679688 Z M 4.628906 14.019531 "/>
<path style=" stroke:none;fill-rule:nonzero;fill:url(#linear1);" d="M 3.96875 7.402344 L 11.90625 7.402344 C 12.273438 7.402344 12.570312 7.699219 12.570312 8.0625 L 12.570312 13.355469 C 12.570312 13.722656 12.273438 14.015625 11.90625 14.015625 L 3.96875 14.015625 C 3.605469 14.015625 3.308594 13.722656 3.308594 13.355469 L 3.308594 8.0625 C 3.308594 7.699219 3.605469 7.402344 3.96875 7.402344 Z M 3.96875 7.402344 "/>
<path style=" stroke:none;fill-rule:nonzero;fill:url(#linear2);" d="M 7.9375 1.449219 C 5.921875 1.449219 4.300781 3.070312 4.300781 5.085938 L 4.300781 7.402344 L 5.292969 7.402344 L 5.292969 5.085938 C 5.292969 3.621094 6.472656 2.441406 7.9375 2.441406 C 9.402344 2.441406 10.585938 3.621094 10.585938 5.085938 L 10.585938 7.402344 L 11.578125 7.402344 L 11.578125 5.085938 C 11.578125 3.070312 9.953125 1.449219 7.9375 1.449219 Z M 7.9375 1.449219 "/>
<path style=" stroke:none;fill-rule:nonzero;fill:rgb(81.176471%,81.176471%,81.176471%);fill-opacity:1;" d="M 7.9375 1.449219 C 5.921875 1.449219 4.300781 3.070312 4.300781 5.085938 L 4.300781 7.402344 L 5.292969 7.402344 L 5.292969 5.085938 C 5.292969 3.621094 6.472656 2.441406 7.9375 2.441406 C 9.402344 2.441406 10.585938 3.621094 10.585938 5.085938 L 10.585938 7.402344 L 11.578125 7.402344 L 11.578125 5.085938 C 11.578125 3.070312 9.953125 1.449219 7.9375 1.449219 Z M 7.9375 1.449219 "/>
<path style=" stroke:none;fill-rule:nonzero;fill:rgb(100%,100%,100%);fill-opacity:0.784314;" d="M 7.9375 1.449219 C 5.921875 1.449219 4.300781 3.070312 4.300781 5.085938 L 4.300781 5.25 C 4.300781 3.234375 5.921875 1.613281 7.9375 1.613281 C 9.953125 1.613281 11.578125 3.234375 11.578125 5.25 L 11.578125 5.085938 C 11.578125 3.070312 9.953125 1.449219 7.9375 1.449219 Z M 7.9375 1.449219 "/>
<path style=" stroke:none;fill-rule:nonzero;fill:rgb(0%,0%,0%);fill-opacity:0.235294;" d="M 7.9375 2.273438 C 6.472656 2.273438 5.292969 3.457031 5.292969 4.921875 L 5.292969 5.085938 C 5.292969 3.621094 6.472656 2.441406 7.9375 2.441406 C 9.402344 2.441406 10.585938 3.621094 10.585938 5.085938 L 10.585938 4.921875 C 10.585938 3.457031 9.402344 2.273438 7.9375 2.273438 Z M 4.300781 7.238281 L 4.300781 7.402344 L 5.292969 7.402344 L 5.292969 7.238281 Z M 10.585938 7.238281 L 10.585938 7.402344 L 11.578125 7.402344 L 11.578125 7.238281 Z M 10.585938 7.238281 "/>
<path style="fill:none;stroke-width:11.338583;stroke-linecap:round;stroke-linejoin:round;stroke:rgb(12.941176%,12.941176%,12.941176%);stroke-opacity:1;stroke-miterlimit:4;" d="M 959.908345 175.258856 C 716.152092 175.258856 520.107819 371.30313 520.107819 615.059383 L 520.107819 895.190115 L 640.096362 895.190115 L 640.096362 615.059383 C 640.096362 437.910943 782.759906 295.2474 959.908345 295.2474 C 1137.056785 295.2474 1280.192724 437.910943 1280.192724 615.059383 L 1280.192724 895.190115 L 1400.181268 895.190115 L 1400.181268 615.059383 C 1400.181268 371.30313 1203.664598 175.258856 959.908345 175.258856 Z M 959.908345 175.258856 " transform="matrix(0.00826902,0,0,0.00826902,0,0)"/>
<path style="fill:none;stroke-width:3;stroke-linecap:round;stroke-linejoin:round;stroke:rgb(12.941176%,12.941176%,12.941176%);stroke-opacity:1;stroke-miterlimit:4;" d="M 126.987873 21.852382 L 179.857824 21.852382 L 179.857824 233.457174 L 126.987873 233.457174 Z M 126.987873 21.852382 " transform="matrix(0.031253,0,0,0.031253,0,6.719392)"/>
<path style="fill-rule:nonzero;fill:url(#linear3);stroke-width:3;stroke-linecap:round;stroke-linejoin:round;stroke:rgb(12.941176%,12.941176%,12.941176%);stroke-opacity:1;stroke-miterlimit:4;" d="M 126.987873 21.852382 L 179.857824 21.852382 L 179.857824 233.457174 L 126.987873 233.457174 Z M 126.987873 21.852382 " transform="matrix(0.031253,0,0,0.031253,0,6.719392)"/>
<path style="fill:none;stroke-width:3;stroke-linecap:round;stroke-linejoin:round;stroke:rgb(12.941176%,12.941176%,12.941176%);stroke-opacity:1;stroke-miterlimit:4;" d="M 328.093669 21.852382 L 380.96362 21.852382 L 380.96362 233.457174 L 328.093669 233.457174 Z M 328.093669 21.852382 " transform="matrix(0.031253,0,0,0.031253,0,6.719392)"/>
<path style="fill-rule:nonzero;fill:url(#linear4);stroke-width:3;stroke-linecap:round;stroke-linejoin:round;stroke:rgb(12.941176%,12.941176%,12.941176%);stroke-opacity:1;stroke-miterlimit:4;" d="M 328.093669 21.852382 L 380.96362 21.852382 L 380.96362 233.457174 L 328.093669 233.457174 Z M 328.093669 21.852382 " transform="matrix(0.031253,0,0,0.031253,0,6.719392)"/>
<path style=" stroke:none;fill-rule:nonzero;fill:rgb(0%,0%,0%);fill-opacity:0.235294;" d="M 3.96875 14.015625 C 3.601562 14.015625 3.308594 13.722656 3.308594 13.355469 L 3.308594 13.023438 C 3.308594 13.390625 3.601562 13.6875 3.96875 13.6875 L 11.90625 13.6875 C 12.273438 13.6875 12.570312 13.390625 12.570312 13.023438 L 12.570312 13.355469 C 12.570312 13.722656 12.273438 14.015625 11.90625 14.015625 Z M 3.96875 14.015625 "/>
<path style=" stroke:none;fill-rule:nonzero;fill:rgb(100%,100%,100%);fill-opacity:0.392157;" d="M 3.96875 7.402344 C 3.601562 7.402344 3.308594 7.695312 3.308594 8.0625 L 3.308594 8.394531 C 3.308594 8.027344 3.601562 7.734375 3.96875 7.734375 L 11.90625 7.734375 C 12.273438 7.734375 12.570312 8.027344 12.570312 8.394531 L 12.570312 8.0625 C 12.570312 7.695312 12.273438 7.402344 11.90625 7.402344 Z M 3.96875 7.402344 "/>
<path style=" stroke:none;fill-rule:nonzero;fill:rgb(12.941176%,12.941176%,12.941176%);fill-opacity:1;" d="M 3.96875 7.355469 C 3.578125 7.355469 3.261719 7.671875 3.261719 8.0625 L 3.261719 13.355469 C 3.261719 13.746094 3.578125 14.0625 3.96875 14.0625 L 11.90625 14.0625 C 12.300781 14.0625 12.617188 13.746094 12.617188 13.355469 L 12.617188 8.0625 C 12.617188 7.671875 12.300781 7.355469 11.90625 7.355469 Z M 3.96875 7.449219 L 11.90625 7.449219 C 12.25 7.449219 12.523438 7.722656 12.523438 8.0625 L 12.523438 13.355469 C 12.523438 13.695312 12.25 13.96875 11.90625 13.96875 L 3.96875 13.96875 C 3.628906 13.96875 3.355469 13.695312 3.355469 13.355469 L 3.355469 8.0625 C 3.355469 7.722656 3.628906 7.449219 3.96875 7.449219 Z M 3.96875 7.449219 "/>
</g>
</svg>
